X: 634
T: O'Carolan's Receipt for Drinking
B: O'Neill's 634
Z: 1999 by John Chambers <jc@eddie.mit.edu> http://eddie.mit.edu/~jc/music/abc/
N: "With spirit"
M: 2/4
L: 1/16
K:G
g>f \
|edcB cBAG|E2GA G2gf|edcB cBcd|e2AB A2Bc|
|dBde d2Bd|egfa g2fg|edcB cBAG|E2GA G||
||Bc \
|dBde dBAG|EFGA G2Bc|dBde ed2Bd|egfa g2z2|
|G3B A3c|BABd e3f|gfed BABd|egfa g2ga|
|babg agae|gfgd edcB|cBcd efgf|edgB A2ge|
|dcBA G2ge|dBAG E2GA|BAGE AGED|E2GA G2|]
